;FLAVOR:Marlin
;TIME:7189
;Filament used: 3.25149m
;Layer height: 0.25
;MINX:96.116
;MINY:76.652
;MINZ:0.425
;MAXX:197.557
;MAXY:182.96
;MAXZ:13.925
;Generated with Cura_SteamEngine 4.13.10
M82 ;absolute extrusion mode
;This G-Code has been generated specifically for the LulzBot TAZ 6 | Single Extruder

;SETTINGS
;Nozzle diameter = 0.5mm
;Filament name = Polymaker PolyLite PLA
;Filament type = PLA (Easy Printing) 2.85
;Filament weight = ~24.27g
;Extruder temp = M109 S205
;Bed temp = M190 S60

;The following lines can be uncommented for printer specific fine tuning
;More information can be found at https://marlinfw.org/meta/gcode/
;
;M92 E420                                   ;Set Axis Steps-per-unit
;M301 P21.0 I1.78 D61.93                    ;Set Hotend PID
;M906 E160                                  ;Digipot Motor Current ((875mA-750)/5+135) = 160
;M206 Y0                                    ;Set Home Offsets (default:0)
;
M73 P0                                      ; clear GLCD progress bar
M75                                         ; start GLCD timer
M107                                        ; disable fans
M420 S0                                     ; disable leveling matrix
G90                                         ; absolute positioning
M82                                         ; set extruder to absolute mode
G92 E0                                      ; set extruder position to 0
M140 S60    ; start bed heating up
G28 XY                                      ; home X and Y
G1 X-19 Y258 F1000                          ; move to safe homing position
M109 R180         ; soften filament before homing Z
G28 Z                                       ; home Z
G1 E-15 F100                                ; retract filament
M109 R180           ; wait for extruder to reach wiping temp
;M206 X0 Y0 Z0                               ; uncomment to adjust wipe position (+X ~ nozzle moves left)(+Y ~ nozzle moves forward)(+Z ~ nozzle moves down)
G12                                         ; wiping sequence
M206 X0 Y0 Z0                               ; reseting stock nozzle position ### CAUTION: changing this line can affect print quality ###
G1 Z10 F5000                                ; raise nozzle after wipe
M109 R160          ; wait for extruder to reach probe temp
G1 X-10 Y293 F4000                          ; move above first probe point
M204 S100                                   ; set probing acceleration
G29                                         ; start auto-leveling sequence
M420 S1                                     ; enable leveling matrix
M204 S500                                   ; restore standard acceleration
G1 X0 Y0 Z15 F5000                          ; move up off last probe point
G4 S1                                       ; pause
M400                                        ; wait for moves to finish
M117 Heating...                             ; progress indicator message on LCD
M109 R205  ; wait for extruder to reach printing temp
M190 R60    ; wait for bed to reach printing temp
G1 Z2 E0 F75                                ; prime tiny bit of filament into the nozzle
M117 TAZ 6 Printing...                      ; progress indicator message on LCD
;Start G-Code End

G92 E0
G92 E0
G1 F600 E-1.75
;LAYER_COUNT:55
;LAYER:0
M107
G0 F2625 X100.202 Y83.063 Z0.425
;TYPE:SKIRT
G1 F600 E0
G1 F900 X100.474 Y82.744 E0.01396
G1 X101.019 Y82.171 E0.04031
G1 X101.397 Y81.785 E0.0583
G1 X101.922 Y81.262 E0.08299
G1 X102.247 Y80.974 E0.09745
G1 X102.896 Y80.463 E0.12497
G1 X103.323 Y80.136 E0.14288
G1 X103.931 Y79.685 E0.1681
G1 X104.284 Y79.453 E0.18217
G1 X104.881 Y79.107 E0.20515
G1 X105.468 Y78.777 E0.22759
G1 X106.07 Y78.45 E0.25041
G1 X106.446 Y78.272 E0.26426
G1 X107.193 Y77.968 E0.29113
G1 X107.727 Y77.762 E0.31019
G1 X108.405 Y77.51 E0.33429
G1 X108.805 Y77.386 E0.34824
G1 X109.59 Y77.191 E0.37518
G1 X110.142 Y77.063 E0.39405
G1 X110.824 Y76.913 E0.41732
G1 X111.242 Y76.845 E0.43142
G1 X112.055 Y76.761 E0.45865
G1 X112.664 Y76.708 E0.47901
G1 X113.321 Y76.659 E0.50096
G1 X113.746 Y76.652 E0.51511
G1 X114.518 Y76.682 E0.54085
G1 X115.177 Y76.718 E0.56283
G1 X115.809 Y76.761 E0.58393
G1 X116.256 Y76.816 E0.59894
G1 X117.032 Y76.958 E0.62521
G1 X117.607 Y77.072 E0.64474
G1 X118.297 Y77.218 E0.66823
G1 X118.708 Y77.33 E0.68242
G1 X119.445 Y77.576 E0.70831
G1 X120.016 Y77.777 E0.72847
G1 X120.474 Y77.948 E0.74475
G1 X121.871 Y78.515 E0.79498
G1 X122.775 Y78.905 E0.82777
G1 X125.286 Y79.946 E0.91832
G1 X127.854 Y80.926 E1.00987
G1 X130.416 Y81.822 E1.10028
G1 X133.018 Y82.649 E1.19123
G1 X135.602 Y83.391 E1.28078
G1 X135.87 Y83.461 E1.29001
G1 X138.008 Y84.05 E1.36388
G1 X138.367 Y84.154 E1.37633
G1 X140.985 Y84.836 E1.46645
G1 X143.691 Y85.462 E1.55897
G1 X146.311 Y85.986 E1.64797
G1 X149.018 Y86.451 E1.73946
G1 X151.685 Y86.833 E1.8292
G1 X154.421 Y87.145 E1.92093
G1 X157.102 Y87.374 E2.01056
G1 X159.852 Y87.531 E2.10231
G1 X162.54 Y87.608 E2.19189
G1 X163.987 Y87.619 E2.24009
G1 X165.046 Y87.619 E2.27537
G1 X165.748 Y87.629 E2.29875
G1 X166.294 Y87.677 E2.31701
G1 X166.826 Y87.804 E2.33523
G1 X167.335 Y88.006 E2.35347
G1 X167.808 Y88.281 E2.3717
G1 X168.328 Y88.709 E2.39413
G1 X168.475 Y88.854 E2.40101
G1 X168.836 Y89.266 E2.41926
G1 X169.14 Y89.73 E2.43773
G1 X170.382 Y91.841 E2.51932
G1 X171.825 Y94.146 E2.6099
G1 X173.34 Y96.418 E2.70087
G1 X174.899 Y98.619 E2.79071
G1 X176.56 Y100.83 E2.88283
G1 X178.227 Y102.923 E2.97196
G1 X180.005 Y105.028 E3.06374
G1 X181.818 Y107.056 E3.15435
G1 X183.669 Y109.014 E3.24411
G1 X185.041 Y110.391 E3.30886
G1 X185.411 Y110.773 E3.32657
G1 X185.762 Y111.193 E3.3448
G1 X186.048 Y111.659 E3.36302
G1 X186.263 Y112.163 E3.38127
G1 X186.403 Y112.692 E3.3995
G1 X186.465 Y113.255 E3.41836
G1 X186.477 Y113.893 E3.43962
G1 X186.477 Y115.061 E3.47853
G1 X186.516 Y117.836 E3.57097
G1 X186.632 Y120.556 E3.66166
G1 X186.824 Y123.273 E3.75239
G1 X187.093 Y125.978 E3.84294
G1 X187.438 Y128.675 E3.93351
G1 X187.863 Y131.379 E4.02468
G1 X188.359 Y134.051 E4.11521
G1 X188.928 Y136.693 E4.20523
G1 X189.576 Y139.34 E4.29601
G1 X190.329 Y142.07 E4.39034
G1 X190.466 Y142.54 E4.40665
G1 X191.034 Y144.596 E4.4777
G1 X191.828 Y147.184 E4.56788
G1 X192.695 Y149.745 E4.65794
G1 X193.647 Y152.316 E4.74926
G1 X194.667 Y154.853 E4.84035
G1 X195.319 Y156.371 E4.89538
G1 X195.789 Y157.441 E4.93431
G1 X196.124 Y158.237 E4.96307
G1 X196.29 Y158.668 E4.97846
G1 X196.62 Y159.593 E5.01117
G1 X196.844 Y160.25 E5.0343
G1 X196.959 Y160.662 E5.04854
G1 X197.145 Y161.516 E5.07766
G1 X197.17 Y161.641 E5.0819
G1 X197.392 Y162.857 E5.12308
G1 X197.458 Y163.413 E5.14173
G1 X197.525 Y164.506 E5.17821
G1 X197.557 Y165.202 E5.20141
G1 X197.552 Y165.627 E5.21557
G1 X197.503 Y166.358 E5.23998
G1 X197.452 Y166.973 E5.26053
G1 X197.375 Y167.761 E5.28691
G1 X197.265 Y168.42 E5.30916
G1 X197.237 Y168.551 E5.31362
G1 X197.019 Y169.503 E5.34616
G1 X196.851 Y170.18 E5.36939
G1 X196.692 Y170.688 E5.38712
G1 X196.522 Y171.148 E5.40346
G1 X196.249 Y171.862 E5.42892
G1 X195.997 Y172.495 E5.45162
G1 X195.792 Y172.934 E5.46776
G1 X195.484 Y173.51 E5.48951
G1 X195.153 Y174.106 E5.51222
G1 X194.807 Y174.711 E5.53544
G1 X194.574 Y175.069 E5.54967
G1 X194.107 Y175.705 E5.57595
G1 X193.749 Y176.177 E5.59568
G1 X193.308 Y176.742 E5.61956
G1 X193.004 Y177.089 E5.63492
G1 X192.545 Y177.557 E5.65676
G1 X192.039 Y178.058 E5.68048
G1 X191.551 Y178.528 E5.70305
G1 X191.234 Y178.801 E5.71698
G1 X190.656 Y179.244 E5.74124
G1 X190.13 Y179.636 E5.76309
G1 X189.554 Y180.052 E5.78676
G1 X189.201 Y180.278 E5.80072
G1 X188.558 Y180.64 E5.8253
G1 X188.002 Y180.942 E5.84638
G1 X187.375 Y181.272 E5.86998
G1 X186.989 Y181.448 E5.88411
G1 X186.286 Y181.722 E5.90924
G1 X185.688 Y181.944 E5.93049
G1 X185.023 Y182.181 E5.95401
G1 X184.614 Y182.301 E5.96821
G1 X183.931 Y182.46 E5.99157
G1 X183.23 Y182.614 E6.01547
G1 X182.585 Y182.744 E6.03739
G1 X182.178 Y182.803 E6.05109
G1 X181.404 Y182.872 E6.07697
G1 X180.752 Y182.919 E6.09875
G1 X180.091 Y182.958 E6.1208
G1 X179.669 Y182.96 E6.13486
G1 X178.897 Y182.918 E6.16062
G1 X178.307 Y182.878 E6.18031
G1 X177.615 Y182.82 E6.20345
G1 X177.064 Y182.744 E6.22197
G1 X176.544 Y182.641 E6.23963
G1 X175.456 Y182.407 E6.2767
G1 X174.752 Y182.223 E6.30094
G1 X174.45 Y182.122 E6.31155
G1 X171.801 Y181.282 E6.40412
G1 X169.221 Y180.544 E6.4935
G1 X166.578 Y179.868 E6.58438
G1 X163.917 Y179.266 E6.67526
G1 X161.243 Y178.741 E6.76603
G1 X158.564 Y178.293 E6.85651
G1 X155.858 Y177.919 E6.9475
G1 X153.155 Y177.622 E7.03808
G1 X150.443 Y177.403 E7.12871
G1 X147.724 Y177.261 E7.21941
G1 X145.001 Y177.194 E7.31014
G1 X142.278 Y177.206 E7.40084
G1 X139.562 Y177.293 E7.49136
G1 X136.257 Y177.517 E7.6017
G1 X136.179 Y177.517 E7.6043
G1 X134.915 Y177.609 E7.64652
G1 X134.255 Y177.648 E7.66854
G1 X133.833 Y177.65 E7.6826
G1 X133.06 Y177.608 E7.70839
G1 X132.47 Y177.568 E7.72808
G1 X131.778 Y177.51 E7.75121
G1 X131.231 Y177.435 E7.76961
G1 X130.714 Y177.333 E7.78716
G1 X129.723 Y177.121 E7.82092
G1 X129.227 Y177.002 E7.83791
G1 X128.599 Y176.806 E7.85982
G1 X127.634 Y176.456 E7.89402
G1 X126.912 Y176.179 E7.91977
G1 X126.53 Y176.008 E7.93372
G1 X125.875 Y175.668 E7.9583
G1 X125.309 Y175.364 E7.9797
G1 X124.698 Y175.025 E8.00298
G1 X124.337 Y174.798 E8.01718
G1 X123.725 Y174.36 E8.04225
G1 X123.25 Y174.011 E8.06188
G1 X122.66 Y173.564 E8.08654
G1 X122.338 Y173.29 E8.10062
G1 X121.748 Y172.727 E8.12779
G1 X121.388 Y172.373 E8.14461
G1 X120.85 Y171.832 E8.17002
G1 X120.564 Y171.51 E8.18437
G1 X120.079 Y170.894 E8.21048
G1 X119.706 Y170.407 E8.23092
G1 X119.304 Y169.867 E8.25334
G1 X119.073 Y169.517 E8.26731
G1 X118.69 Y168.859 E8.29267
G1 X118.364 Y168.279 E8.31483
G1 X118.045 Y167.69 E8.33715
G1 X117.87 Y167.321 E8.35075
G1 X117.565 Y166.573 E8.37766
G1 X117.36 Y166.042 E8.39662
G1 X117.104 Y165.355 E8.42104
G1 X116.978 Y164.948 E8.43523
G1 X116.793 Y164.201 E8.46087
G1 X116.64 Y163.539 E8.4835
G1 X116.507 Y162.928 E8.50433
G1 X116.441 Y162.514 E8.51829
G1 X116.365 Y161.771 E8.54317
G1 X116.301 Y161.053 E8.56718
G1 X116.256 Y160.45 E8.58733
G1 X116.246 Y160.184 E8.59619
G1 X116.236 Y157.356 E8.69039
G1 X116.148 Y154.631 E8.78121
G1 X115.985 Y151.916 E8.87181
G1 X115.745 Y149.211 E8.96227
G1 X115.43 Y146.531 E9.05216
G1 X115.032 Y143.807 E9.14386
G1 X114.563 Y141.128 E9.23445
G1 X114.018 Y138.467 E9.32493
G1 X113.401 Y135.826 E9.41527
G1 X112.698 Y133.171 E9.50676
G1 X111.941 Y130.598 E9.5961
G1 X111.08 Y127.954 E9.68873
G1 X110.172 Y125.416 E9.77852
G1 X109.188 Y122.888 E9.86888
G1 X108.127 Y120.377 E9.95968
G1 X106.988 Y117.88 E10.0511
G1 X105.801 Y115.461 E10.14086
G1 X104.531 Y113.05 E10.23163
G1 X103.19 Y110.671 E10.3226
G1 X101.8 Y108.358 E10.41249
G1 X99.543 Y104.883 E10.55051
G1 X98.965 Y104.034 E10.58472
G1 X98.797 Y103.764 E10.59532
G1 X98.404 Y103.064 E10.62206
G1 X98.149 Y102.595 E10.63984
G1 X97.804 Y101.94 E10.6645
G1 X97.628 Y101.554 E10.67863
G1 X97.346 Y100.83 E10.70451
G1 X97.125 Y100.235 E10.72566
G1 X96.895 Y99.587 E10.74856
G1 X96.778 Y99.187 E10.76244
G1 X96.608 Y98.461 E10.78728
G1 X96.48 Y97.872 E10.80736
G1 X96.334 Y97.158 E10.83163
G1 X96.273 Y96.739 E10.84574
G1 X96.203 Y95.956 E10.87192
G1 X96.157 Y95.332 E10.89277
G1 X96.117 Y94.643 E10.91575
G1 X96.116 Y94.23 E10.92951
G1 X96.154 Y93.506 E10.95366
G1 X96.198 Y92.869 E10.97493
G1 X96.258 Y92.166 E10.99843
G1 X96.333 Y91.62 E11.01679
G1 X96.438 Y91.095 E11.03463
G1 X96.639 Y90.147 E11.06691
G1 X96.76 Y89.643 E11.08417
G1 X96.956 Y89.011 E11.10621
G1 X97.309 Y88.038 E11.14069
G1 X97.582 Y87.325 E11.16612
G1 X97.756 Y86.936 E11.18032
G1 X98.098 Y86.278 E11.20502
G1 X98.402 Y85.712 E11.22642
G1 X98.742 Y85.099 E11.24977
G1 X98.969 Y84.739 E11.26395
G1 X99.414 Y84.116 E11.28945
G1 X99.755 Y83.653 E11.3086
G1 X100.202 Y83.063 E11.33326
G0 F2625 X100.601 Y83.365
G1 F900 X100.836 Y83.088 E11.34536
G1 X101.376 Y82.521 E11.37144
G1 X101.75 Y82.14 E11.38923
G1 X102.275 Y81.617 E11.41391
G1 X102.557 Y81.367 E11.42646
G1 X103.201 Y80.859 E11.45379
G1 X103.621 Y80.538 E11.4714
G1 X104.229 Y80.087 E11.49661
G1 X104.535 Y79.886 E11.50881
G1 X105.127 Y79.543 E11.5316
G1 X105.707 Y79.216 E11.55378
G1 X106.309 Y78.889 E11.5766
G1 X106.635 Y78.735 E11.58861
G1 X107.373 Y78.435 E11.61514
G1 X107.901 Y78.231 E11.634
G1 X108.579 Y77.979 E11.65809
G1 X108.926 Y77.871 E11.6702
G1 X109.704 Y77.678 E11.6969
G1 X110.25 Y77.551 E11.71557
G1 X110.932 Y77.401 E11.73883
G1 X111.294 Y77.342 E11.75105
G1 X112.098 Y77.259 E11.77797
G1 X112.701 Y77.207 E11.79814
G1 X113.358 Y77.158 E11.82008
G1 X113.726 Y77.151 E11.83234
G1 X114.491 Y77.182 E11.85784
G1 X115.143 Y77.216 E11.87959
G1 X115.775 Y77.259 E11.90069
G1 X116.167 Y77.308 E11.91385
G1 X116.935 Y77.448 E11.93986
G1 X117.504 Y77.561 E11.95918
G1 X118.194 Y77.707 E11.98267
G1 X118.55 Y77.804 E11.99496
G1 X119.28 Y78.048 E12.0206
G1 X119.843 Y78.246 E12.04048
G1 X120.286 Y78.411 E12.05623
G1 X121.673 Y78.974 E12.10609
G1 X122.593 Y79.371 E12.13947
G1 X125.084 Y80.404 E12.2293
G1 X127.69 Y81.398 E12.3222
G1 X130.268 Y82.3 E12.41318
G1 X132.843 Y83.118 E12.50318
G1 X135.497 Y83.88 E12.59516
G1 X135.737 Y83.943 E12.60342
G1 X137.868 Y84.53 E12.67705
G1 X138.238 Y84.638 E12.68989
G1 X140.893 Y85.329 E12.78128
G1 X143.546 Y85.943 E12.87198
G1 X146.24 Y86.482 E12.9635
G1 X148.933 Y86.944 E13.05452
G1 X151.624 Y87.329 E13.14507
G1 X154.362 Y87.641 E13.23686
G1 X157.065 Y87.873 E13.32723
G1 X159.81 Y88.029 E13.41881
G1 X162.57 Y88.108 E13.51079
G1 X163.984 Y88.119 E13.55789
G1 X165.039 Y88.119 E13.59303
G1 X165.741 Y88.129 E13.61642
G1 X166.249 Y88.176 E13.63341
G1 X166.742 Y88.302 E13.65036
G1 X167.21 Y88.504 E13.66734
G1 X167.641 Y88.776 E13.68432
G1 X168.124 Y89.21 E13.70595
G1 X168.458 Y89.595 E13.72293
G1 X168.738 Y90.032 E13.74022
G1 X169.944 Y92.082 E13.81944
G1 X171.418 Y94.435 E13.91193
G1 X172.932 Y96.707 E14.00288
G1 X174.508 Y98.932 E14.0937
G1 X176.143 Y101.108 E14.18436
G1 X177.855 Y103.257 E14.27589
G1 X179.622 Y105.35 E14.36713
G1 X181.435 Y107.379 E14.45777
G1 X183.342 Y109.395 E14.5502
G1 X184.681 Y110.739 E14.6134
G1 X185.051 Y111.121 E14.63111
G1 X185.376 Y111.514 E14.6481
G1 X185.636 Y111.952 E14.66507
G1 X185.823 Y112.426 E14.68204
G1 X185.934 Y112.923 E14.699
G1 X185.972 Y113.49 E14.71793
G1 X185.977 Y113.899 E14.73156
G1 X185.977 Y115.068 E14.7705
G1 X186.017 Y117.864 E14.86364
G1 X186.132 Y120.576 E14.95406
G1 X186.326 Y123.322 E15.04576
G1 X186.594 Y126.024 E15.13621
G1 X186.942 Y128.741 E15.22745
G1 X187.372 Y131.477 E15.31971
G1 X187.867 Y134.142 E15.41
G1 X188.435 Y136.779 E15.49985
G1 X189.098 Y139.487 E15.59272
G1 X189.849 Y142.21 E15.68681
G1 X189.984 Y142.673 E15.70288
G1 X190.555 Y144.738 E15.77424
G1 X191.344 Y147.312 E15.86392
G1 X192.234 Y149.942 E15.95641
G1 X193.18 Y152.498 E16.04719
G1 X194.208 Y155.051 E16.13887
G1 X194.849 Y156.543 E16.19296
G1 X195.328 Y157.636 E16.23271
G1 X195.658 Y158.418 E16.26099
G1 X195.819 Y158.836 E16.27591
G1 X196.147 Y159.754 E16.30838
G1 X196.371 Y160.411 E16.3315
G1 X196.471 Y160.768 E16.34385
G1 X196.657 Y161.622 E16.37296
G1 X196.9 Y162.946 E16.4178
G1 X196.96 Y163.458 E16.43498
G1 X197.026 Y164.529 E16.47072
G1 X197.058 Y165.225 E16.49393
G1 X197.054 Y165.593 E16.50619
G1 X197.004 Y166.317 E16.53036
G1 X196.955 Y166.924 E16.55065
G1 X196.878 Y167.712 E16.57702
G1 X196.774 Y168.326 E16.59776
G1 X196.75 Y168.44 E16.60164
G1 X196.533 Y169.383 E16.63388
G1 X196.365 Y170.06 E16.65711
G1 X196.069 Y170.934 E16.68785
G1 X195.785 Y171.677 E16.71434
G1 X195.533 Y172.31 E16.73704
G1 X195.352 Y172.698 E16.7513
G1 X195.046 Y173.268 E16.77285
G1 X194.719 Y173.857 E16.79529
G1 X194.373 Y174.462 E16.81851
G1 X194.171 Y174.773 E16.83086
G1 X193.708 Y175.404 E16.85693
G1 X193.355 Y175.87 E16.8764
G1 X192.914 Y176.435 E16.90028
G1 X192.646 Y176.74 E16.9138
G1 X192.193 Y177.202 E16.93536
G1 X191.693 Y177.698 E16.95882
G1 X191.205 Y178.168 E16.98138
G1 X190.929 Y178.405 E16.9935
G1 X190.357 Y178.843 E17.0175
G1 X189.837 Y179.231 E17.03911
G1 X189.261 Y179.647 E17.06278
G1 X188.955 Y179.843 E17.07488
G1 X188.319 Y180.201 E17.0992
G1 X187.769 Y180.5 E17.12005
