;FLAVOR:Marlin
;TIME:6387
;Filament used: 3.26699m
;Layer height: 0.25
;MINX:78.753
;MINY:110.949
;MINZ:0.425
;MAXX:197.499
;MAXY:229.803
;MAXZ:13.925
;Generated with Cura_SteamEngine 4.13.10
M82 ;absolute extrusion mode
;This G-Code has been generated specifically for the LulzBot TAZ 6 | Single Extruder

;SETTINGS
;Nozzle diameter = 0.5mm
;Filament name = Polymaker PolyLite PLA
;Filament type = PLA (Easy Printing) 2.85
;Filament weight = ~24.38g
;Extruder temp = M109 S205
;Bed temp = M190 S60

;The following lines can be uncommented for printer specific fine tuning
;More information can be found at https://marlinfw.org/meta/gcode/
;
;M92 E420                                   ;Set Axis Steps-per-unit
;M301 P21.0 I1.78 D61.93                    ;Set Hotend PID
;M906 E160                                  ;Digipot Motor Current ((875mA-750)/5+135) = 160
;M206 Y0                                    ;Set Home Offsets (default:0)
;
M73 P0                                      ; clear GLCD progress bar
M75                                         ; start GLCD timer
M107                                        ; disable fans
M420 S0                                     ; disable leveling matrix
G90                                         ; absolute positioning
M82                                         ; set extruder to absolute mode
G92 E0                                      ; set extruder position to 0
M140 S60    ; start bed heating up
G28 XY                                      ; home X and Y
G1 X-19 Y258 F1000                          ; move to safe homing position
M109 R180         ; soften filament before homing Z
G28 Z                                       ; home Z
G1 E-15 F100                                ; retract filament
M109 R180           ; wait for extruder to reach wiping temp
;M206 X0 Y0 Z0                               ; uncomment to adjust wipe position (+X ~ nozzle moves left)(+Y ~ nozzle moves forward)(+Z ~ nozzle moves down)
G12                                         ; wiping sequence
M206 X0 Y0 Z0                               ; reseting stock nozzle position ### CAUTION: changing this line can affect print quality ###
G1 Z10 F5000                                ; raise nozzle after wipe
M109 R160          ; wait for extruder to reach probe temp
G1 X-10 Y293 F4000                          ; move above first probe point
M204 S100                                   ; set probing acceleration
G29                                         ; start auto-leveling sequence
M420 S1                                     ; enable leveling matrix
M204 S500                                   ; restore standard acceleration
G1 X0 Y0 Z15 F5000                          ; move up off last probe point
G4 S1                                       ; pause
M400                                        ; wait for moves to finish
M117 Heating...                             ; progress indicator message on LCD
M109 R205  ; wait for extruder to reach printing temp
M190 R60    ; wait for bed to reach printing temp
G1 Z2 E0 F75                                ; prime tiny bit of filament into the nozzle
M117 TAZ 6 Printing...                      ; progress indicator message on LCD
;Start G-Code End

G92 E0
G92 E0
G1 F600 E-1.75
;LAYER_COUNT:55
;LAYER:0
M107
G0 F2625 X98.428 Y112.013 Z0.425
;TYPE:SKIRT
G1 F600 E0
G1 F900 X98.848 Y111.663 E0.01821
G1 X99.315 Y111.377 E0.03645
G1 X99.818 Y111.162 E0.05467
G1 X100.348 Y111.023 E0.07293
G1 X100.908 Y110.961 E0.09169
G1 X101.546 Y110.949 E0.11295
G1 X114.376 Y110.949 E0.54032
G1 X115.078 Y110.959 E0.56371
G1 X115.624 Y111.007 E0.58197
G1 X116.156 Y111.134 E0.60018
G1 X116.665 Y111.336 E0.61843
G1 X117.138 Y111.611 E0.63665
G1 X117.607 Y111.99 E0.65674
G1 X119.802 Y114.075 E0.75758
G1 X121.84 Y115.906 E0.84884
G1 X123.932 Y117.68 E0.94021
G1 X126.052 Y119.378 E1.03069
G1 X128.218 Y121.014 E1.1211
G1 X130.427 Y122.586 E1.21142
G1 X132.7 Y124.11 E1.30257
G1 X134.996 Y125.557 E1.39298
G1 X137.332 Y126.937 E1.48335
G1 X139.718 Y128.257 E1.57418
G1 X142.156 Y129.518 E1.66561
G1 X144.597 Y130.695 E1.75588
G1 X147.073 Y131.802 E1.84623
G1 X149.624 Y132.859 E1.93821
G1 X152.15 Y133.819 E2.02822
G1 X153.282 Y134.218 E2.0682
G1 X153.782 Y134.403 E2.08596
G1 X154.28 Y134.63 E2.10419
G1 X154.74 Y134.927 E2.12243
G1 X155.142 Y135.277 E2.14019
G1 X155.287 Y135.423 E2.14704
G1 X155.643 Y135.839 E2.16528
G1 X156.065 Y136.528 E2.19219
G1 X157.098 Y138.403 E2.2635
G1 X158.472 Y140.747 E2.35401
G1 X159.915 Y143.053 E2.44462
G1 X161.413 Y145.305 E2.53471
G1 X162.997 Y147.545 E2.6261
G1 X164.626 Y149.716 E2.71651
G1 X166.315 Y151.838 E2.80685
G1 X168.072 Y153.924 E2.8977
G1 X169.891 Y155.962 E2.9887
G1 X171.759 Y157.94 E3.07932
G1 X173.681 Y159.861 E3.16984
G1 X175.652 Y161.725 E3.2602
G1 X177.698 Y163.553 E3.3516
G1 X179.753 Y165.286 E3.44114
G1 X181.916 Y167.008 E3.53324
G1 X184.06 Y168.618 E3.62255
G1 X186.31 Y170.211 E3.71438
G1 X188.552 Y171.704 E3.8041
G1 X190.892 Y173.169 E3.89607
G1 X193.215 Y174.532 E3.98578
G1 X195.097 Y175.575 E4.05746
G1 X195.382 Y175.73 E4.06826
G1 X195.842 Y176.025 E4.08647
G1 X196.235 Y176.364 E4.10375
G1 X196.383 Y176.511 E4.1107
G1 X196.742 Y176.924 E4.12893
G1 X197.037 Y177.385 E4.14716
G1 X197.262 Y177.884 E4.1654
G1 X197.412 Y178.411 E4.18365
G1 X197.489 Y179.108 E4.20701
G1 X197.499 Y179.696 E4.2266
G1 X197.499 Y184.108 E4.37356
G1 X197.489 Y184.835 E4.39778
G1 X197.441 Y185.38 E4.416
G1 X197.315 Y185.912 E4.43422
G1 X197.112 Y186.421 E4.45247
G1 X196.838 Y186.895 E4.47071
G1 X196.409 Y187.416 E4.49319
G1 X196.267 Y187.56 E4.49992
G1 X195.855 Y187.921 E4.51817
G1 X195.146 Y188.361 E4.54597
G1 X193.239 Y189.41 E4.61847
G1 X190.88 Y190.796 E4.7096
G1 X188.558 Y192.25 E4.80086
G1 X186.314 Y193.744 E4.89066
G1 X184.115 Y195.301 E4.98041
G1 X181.89 Y196.972 E5.0731
G1 X179.788 Y198.646 E5.16261
G1 X177.71 Y200.4 E5.25319
G1 X175.67 Y202.223 E5.34433
G1 X173.691 Y204.092 E5.435
G1 X171.773 Y206.012 E5.5254
G1 X169.892 Y208.004 E5.61666
G1 X168.097 Y210.016 E5.70648
G1 X166.33 Y212.111 E5.79777
G1 X164.643 Y214.231 E5.88802
G1 X163.007 Y216.412 E5.97884
G1 X161.439 Y218.63 E6.06932
G1 X159.918 Y220.915 E6.16075
G1 X158.486 Y223.205 E6.25072
G1 X157.099 Y225.57 E6.34204
G1 X156.086 Y227.399 E6.41169
G1 X155.93 Y227.686 E6.42257
G1 X155.635 Y228.146 E6.44077
G1 X155.305 Y228.529 E6.45761
G1 X155.161 Y228.675 E6.46444
G1 X154.749 Y229.036 E6.48269
G1 X154.289 Y229.333 E6.50093
G1 X153.791 Y229.559 E6.51915
G1 X153.265 Y229.711 E6.53739
G1 X152.64 Y229.789 E6.55837
G1 X151.977 Y229.803 E6.58046
G1 X147.526 Y229.803 E6.72872
G1 X146.825 Y229.793 E6.75207
G1 X146.279 Y229.745 E6.77033
G1 X145.747 Y229.618 E6.78855
G1 X145.238 Y229.416 E6.80679
G1 X144.765 Y229.141 E6.82502
G1 X144.245 Y228.713 E6.84745
G1 X144.076 Y228.547 E6.85534
G1 X143.719 Y228.132 E6.87358
G1 X143.276 Y227.409 E6.90182
G1 X142.273 Y225.583 E6.97122
G1 X140.884 Y223.216 E7.06264
G1 X139.442 Y220.91 E7.15323
G1 X137.942 Y218.657 E7.24339
G1 X136.358 Y216.417 E7.33478
G1 X134.73 Y214.247 E7.42514
G1 X133.041 Y212.125 E7.51548
G1 X131.284 Y210.039 E7.60633
G1 X129.465 Y208.002 E7.6973
G1 X127.596 Y206.023 E7.78798
G1 X125.674 Y204.102 E7.87849
G1 X123.703 Y202.238 E7.96886
G1 X121.673 Y200.425 E8.05952
G1 X119.584 Y198.662 E8.15057
G1 X117.439 Y196.954 E8.24191
G1 X115.296 Y195.346 E8.33115
G1 X113.047 Y193.753 E8.42296
G1 X110.804 Y192.259 E8.51273
G1 X108.478 Y190.803 E8.60414
G1 X106.108 Y189.411 E8.69569
G1 X104.287 Y188.403 E8.76502
G1 X103.974 Y188.233 E8.77689
G1 X103.514 Y187.938 E8.79509
G1 X103.121 Y187.599 E8.81238
G1 X102.973 Y187.452 E8.81933
G1 X102.614 Y187.039 E8.83756
G1 X102.319 Y186.578 E8.85579
G1 X102.09 Y186.069 E8.87438
G1 X101.751 Y185.131 E8.9076
G1 X101.512 Y184.437 E8.93205
G1 X100.561 Y181.914 E9.02187
G1 X99.521 Y179.37 E9.11342
G1 X98.43 Y176.907 E9.20315
G1 X97.242 Y174.417 E9.29505
G1 X96.007 Y172.003 E9.38537
G1 X94.697 Y169.615 E9.4761
G1 X93.332 Y167.285 E9.56605
G1 X91.887 Y164.972 E9.6569
G1 X90.364 Y162.679 E9.74859
G1 X88.802 Y160.468 E9.83876
G1 X87.181 Y158.302 E9.92888
G1 X85.471 Y156.151 E10.02042
G1 X83.747 Y154.103 E10.10959
G1 X81.924 Y152.057 E10.20087
G1 X79.948 Y149.961 E10.29682
G1 X79.814 Y149.823 E10.30323
G1 X79.463 Y149.402 E10.32149
G1 X79.178 Y148.935 E10.33971
G1 X78.964 Y148.431 E10.35795
G1 X78.826 Y147.902 E10.37616
G1 X78.765 Y147.347 E10.39476
G1 X78.753 Y146.71 E10.41598
G1 X78.753 Y133.88 E10.84336
G1 X78.763 Y133.178 E10.86674
G1 X78.811 Y132.632 E10.885
G1 X78.938 Y132.1 E10.90322
G1 X79.14 Y131.591 E10.92146
G1 X79.415 Y131.118 E10.93969
G1 X79.764 Y130.681 E10.95831
G1 X80.155 Y130.271 E10.97719
G1 X97.941 Y112.484 E11.81507
G1 X98.428 Y112.013 E11.83764
G0 F2625 X98.776 Y112.373
G1 F900 X99.168 Y112.048 E11.8546
G1 X99.607 Y111.789 E11.87158
G1 X100.081 Y111.602 E11.88855
G1 X100.578 Y111.491 E11.90552
G1 X101.143 Y111.454 E11.92438
G1 X101.552 Y111.449 E11.938
G1 X114.369 Y111.449 E12.36494
G1 X115.071 Y111.459 E12.38833
G1 X115.579 Y111.506 E12.40532
G1 X116.072 Y111.632 E12.42227
G1 X116.54 Y111.834 E12.43925
G1 X116.971 Y112.106 E12.45623
G1 X117.263 Y112.352 E12.46895
G1 X119.478 Y114.455 E12.57069
G1 X121.52 Y116.29 E12.66214
G1 X123.609 Y118.062 E12.75338
G1 X125.737 Y119.767 E12.84421
G1 X127.921 Y121.416 E12.93537
G1 X130.153 Y123.004 E13.02662
G1 X132.416 Y124.522 E13.11739
G1 X134.743 Y125.988 E13.209
G1 X137.072 Y127.364 E13.29911
G1 X139.498 Y128.706 E13.39146
G1 X141.918 Y129.958 E13.48222
G1 X144.385 Y131.147 E13.57344
G1 X146.887 Y132.267 E13.66475
G1 X149.435 Y133.321 E13.7566
G1 X151.964 Y134.283 E13.84674
G1 X153.109 Y134.687 E13.88718
G1 X153.609 Y134.872 E13.90494
G1 X154.071 Y135.086 E13.9219
G1 X154.495 Y135.369 E13.93888
G1 X154.932 Y135.776 E13.95877
G1 X155.262 Y136.164 E13.97574
G1 X155.631 Y136.775 E13.99951
G1 X156.644 Y138.618 E14.06957
G1 X158.048 Y141.012 E14.16202
G1 X159.49 Y143.318 E14.25261
G1 X161.004 Y145.593 E14.34364
G1 X162.593 Y147.84 E14.43531
G1 X164.222 Y150.011 E14.52572
G1 X165.928 Y152.155 E14.61699
G1 X167.704 Y154.262 E14.70878
G1 X169.526 Y156.303 E14.79992
G1 X171.378 Y158.265 E14.88979
G1 X173.355 Y160.241 E14.9829
G1 X175.311 Y162.091 E15.07258
G1 X177.36 Y163.921 E15.16409
G1 X179.457 Y165.69 E15.25548
G1 X181.599 Y167.396 E15.34669
G1 X183.765 Y169.021 E15.43689
G1 X186.021 Y170.619 E15.52898
G1 X188.303 Y172.138 E15.6203
G1 X190.61 Y173.583 E15.71097
G1 X192.976 Y174.971 E15.80235
G1 X194.854 Y176.012 E15.87387
G1 X195.143 Y176.169 E15.88483
G1 X195.57 Y176.447 E15.9018
G1 X196.03 Y176.866 E15.92253
G1 X196.363 Y177.252 E15.93951
G1 X196.63 Y177.686 E15.95648
G1 X196.827 Y178.156 E15.97346
G1 X196.948 Y178.651 E15.99043
G1 X196.99 Y179.116 E16.00598
G1 X196.999 Y179.64 E16.02344
G1 X196.999 Y184.101 E16.17204
G1 X196.989 Y184.828 E16.19626
G1 X196.942 Y185.335 E16.21322
G1 X196.816 Y185.829 E16.2302
G1 X196.615 Y186.297 E16.24717
G1 X196.343 Y186.728 E16.26414
G1 X195.911 Y187.209 E16.28568
G1 X195.526 Y187.543 E16.30266
G1 X194.897 Y187.927 E16.3272
G1 X193.002 Y188.97 E16.39926
G1 X190.597 Y190.382 E16.49215
G1 X188.309 Y191.815 E16.58208
G1 X186.025 Y193.336 E16.67349
G1 X183.817 Y194.9 E16.76362
G1 X181.595 Y196.568 E16.85617
G1 X179.471 Y198.26 E16.94663
G1 X177.371 Y200.032 E17.03815
G1 X175.348 Y201.84 E17.12853
G1 X173.33 Y203.746 E17.22099
G1 X171.434 Y205.644 E17.31036
G1 X169.501 Y207.69 E17.40412
G1 X167.729 Y209.677 E17.4928
G1 X165.944 Y211.794 E17.58504
G1 X164.239 Y213.936 E17.67624
G1 X162.603 Y216.117 E17.76705
G1 X161.013 Y218.366 E17.8588
G1 X159.509 Y220.625 E17.9492
G1 X158.046 Y222.964 E18.0411
G1 X156.668 Y225.314 E18.13184
G1 X155.661 Y227.134 E18.20113
G1 X155.491 Y227.447 E18.21299
G1 X155.213 Y227.874 E18.22997
G1 X154.805 Y228.324 E18.2502
G1 X154.42 Y228.658 E18.26718
G1 X153.987 Y228.927 E18.28416
G1 X153.518 Y229.125 E18.30112
G1 X153.023 Y229.248 E18.31811
G1 X152.469 Y229.295 E18.33663
G1 X151.971 Y229.303 E18.35322
G1 X147.533 Y229.303 E18.50105
G1 X146.832 Y229.293 E18.5244
G1 X146.324 Y229.245 E18.5414
G1 X145.831 Y229.12 E18.55834
G1 X145.363 Y228.918 E18.57532
G1 X144.932 Y228.646 E18.5923
G1 X144.453 Y228.216 E18.61374
G1 X144.43 Y228.193 E18.61482
G1 X144.099 Y227.806 E18.63178
G1 X143.711 Y227.163 E18.6568
G1 X142.699 Y225.32 E18.72684
G1 X141.324 Y222.975 E18.81739
G1 X139.866 Y220.646 E18.90892
G1 X138.351 Y218.369 E19.00002
G1 X136.762 Y216.122 E19.09169
G1 X135.134 Y213.952 E19.18206
G1 X133.428 Y211.808 E19.27332
G1 X131.653 Y209.701 E19.36509
G1 X129.83 Y207.661 E19.45623
G1 X127.977 Y205.698 E19.54614
G1 X126 Y203.722 E19.63925
G1 X124.044 Y201.872 E19.72894
G1 X121.995 Y200.042 E19.82045
G1 X119.898 Y198.272 E19.91185
G1 X117.756 Y196.566 E20.00307
G1 X115.591 Y194.942 E20.09322
G1 X113.336 Y193.345 E20.18527
G1 X111.053 Y191.824 E20.27665
G1 X108.76 Y190.389 E20.36675
G1 X106.363 Y188.982 E20.45933
G1 X104.502 Y187.951 E20.5302
G1 X104.213 Y187.794 E20.54116
G1 X103.786 Y187.516 E20.55813
G1 X103.326 Y187.097 E20.57886
G1 X102.993 Y186.711 E20.59584
G1 X102.726 Y186.277 E20.61281
G1 X102.561 Y185.899 E20.62655
G1 X102.224 Y184.969 E20.6595
G1 X101.982 Y184.266 E20.68427
G1 X101.026 Y181.728 E20.77461
G1 X99.987 Y179.189 E20.86599
G1 X98.866 Y176.656 E20.95826
G1 X97.706 Y174.226 E21.04795
G1 X96.458 Y171.787 E21.13921
G1 X95.126 Y169.358 E21.23149
G1 X93.755 Y167.019 E21.3218
G1 X92.296 Y164.683 E21.41354
G1 X90.801 Y162.432 E21.50356
G1 X89.194 Y160.157 E21.59634
G1 X87.572 Y157.991 E21.68647
G1 X85.886 Y155.87 E21.77673
G1 X84.075 Y153.718 E21.87042
G1 X82.292 Y151.717 E21.95969
G1 X80.311 Y149.618 E22.05583
G1 X80.174 Y149.476 E22.06241
G1 X79.85 Y149.083 E22.07937
G1 X79.591 Y148.643 E22.09638
G1 X79.405 Y148.169 E22.11334
G1 X79.295 Y147.672 E22.1303
G1 X79.258 Y147.113 E22.14896
G1 X79.253 Y146.704 E22.16258
G1 X79.253 Y133.887 E22.58952
G1 X79.263 Y133.185 E22.61291
G1 X79.31 Y132.677 E22.6299
G1 X79.436 Y132.184 E22.64685
G1 X79.638 Y131.716 E22.66383
G1 X79.91 Y131.285 E22.68081
G1 X80.271 Y130.869 E22.69916
G1 X80.537 Y130.596 E22.71185
G1 X98.289 Y112.844 E23.54811
G1 X98.776 Y112.373 E23.57068
G1 F600 E21.82068
G0 F2625 X115.107 Y114.035
G0 X146.962 Y138.165
;TYPE:SUPPORT
G1 F600 E23.57068
G1 F900 X146.967 Y138.16 E23.57092
G1 X152.38 Y138.16 E23.75123
G1 X152.385 Y138.165 E23.75146
G1 X152.386 Y166.66 E24.70064
G1 X146.962 Y166.66 E24.88132
G1 X146.962 Y138.165 E25.83049
G0 F2625 X147.5 Y138.36
G1 F900 X147.5 Y166.46 E26.76651
G0 F2625 X147.161 Y165
G1 F900 X152.185 Y165 E26.93387
G0 F2625 X152.185 Y162.5
G1 F900 X147.161 Y162.5 E27.10122
G0 F2625 X147.161 Y160
G1 F900 X152.185 Y160 E27.26857
G0 F2625 X152.185 Y157.5
G1 F900 X147.161 Y157.5 E27.43592
G0 F2625 X147.161 Y155
G1 F900 X152.185 Y155 E27.60327
G0 F2625 X152.185 Y152.5
G1 F900 X147.161 Y152.5 E27.77062
G0 F2625 X147.161 Y150
G1 F900 X152.185 Y150 E27.93797
G0 F2625 X152.185 Y147.5
G1 F900 X147.161 Y147.5 E28.10532
G0 F2625 X147.161 Y145
G1 F900 X152.185 Y145 E28.27268
G0 F2625 X152.185 Y142.5
G1 F900 X147.161 Y142.5 E28.44003
G0 F2625 X147.161 Y140
G1 F900 X152.185 Y140 E28.60738
G0 F2625 X150 Y138.36
G1 F900 X150 Y166.46 E29.5434
G0 F2625 X149.664 Y175.235
G1 F900 X150.811 Y175.332 E29.58174
G1 X151.2 Y175.433 E29.59513
G1 X151.309 Y176.099 E29.61761
G1 X146.066 Y177.164 E29.79582
G1 X146.153 Y176.916 E29.80458
G1 X146.03 Y176.335 E29.82436
G1 X146.385 Y176.095 E29.83863
G1 X147.434 Y175.62 E29.87699
G1 X148.552 Y175.33 E29.91547
G1 X149.664 Y175.235 E29.95264
G0 F2625 X150 Y175.465
G1 F900 X150 Y176.161 E29.97583
G0 F2625 X147.5 Y175.809
G1 F900 X147.5 Y176.669 E30.00447
G0 F2625 X143.698 Y179.38
G1 F900 X144.777 Y185.524 E30.21226
G1 X144.054 Y185.665 E30.2368
G1 X143.656 Y185.017 E30.26213
G1 X143.225 Y183.948 E30.30053
G1 X142.987 Y182.846 E30.33808
G1 X142.939 Y181.704 E30.37615
G1 X143.083 Y180.568 E30.4143
G1 X143.36 Y179.661 E30.44589
G1 X143.698 Y179.38 E30.46053
G0 F2625 X143.603 Y180
G1 F900 X143.465 Y180 E30.46513
G0 F2625 X143.171 Y182.5
G1 F900 X144.043 Y182.5 E30.49417
G0 F2625 X143.88 Y185
G1 F900 X144.482 Y185 E30.51423
