;FLAVOR:Marlin
;TIME:17377
;Filament used: 9.63871m
;Layer height: 0.25
;MINX:58.181
;MINY:68.314
;MINZ:0.425
;MAXX:217.001
;MAXY:227.135
;MAXZ:24.925
;Generated with Cura_SteamEngine 4.13.10
M82 ;absolute extrusion mode
;This G-Code has been generated specifically for the LulzBot TAZ 6 | Single Extruder

;SETTINGS
;Nozzle diameter = 0.5mm
;Filament name = Polymaker PolyLite PLA
;Filament type = PLA (Easy Printing) 2.85
;Filament weight = ~71.94g
;Extruder temp = M109 S205
;Bed temp = M190 S60

;The following lines can be uncommented for printer specific fine tuning
;More information can be found at https://marlinfw.org/meta/gcode/
;
;M92 E420                                   ;Set Axis Steps-per-unit
;M301 P21.0 I1.78 D61.93                    ;Set Hotend PID
;M906 E160                                  ;Digipot Motor Current ((875mA-750)/5+135) = 160
;M206 Y0                                    ;Set Home Offsets (default:0)
;
M73 P0                                      ; clear GLCD progress bar
M75                                         ; start GLCD timer
M107                                        ; disable fans
M420 S0                                     ; disable leveling matrix
G90                                         ; absolute positioning
M82                                         ; set extruder to absolute mode
G92 E0                                      ; set extruder position to 0
M140 S60    ; start bed heating up
G28 XY                                      ; home X and Y
G1 X-19 Y258 F1000                          ; move to safe homing position
M109 R180         ; soften filament before homing Z
G28 Z                                       ; home Z
G1 E-15 F100                                ; retract filament
M109 R180           ; wait for extruder to reach wiping temp
;M206 X0 Y0 Z0                               ; uncomment to adjust wipe position (+X ~ nozzle moves left)(+Y ~ nozzle moves forward)(+Z ~ nozzle moves down)
G12                                         ; wiping sequence
M206 X0 Y0 Z0                               ; reseting stock nozzle position ### CAUTION: changing this line can affect print quality ###
G1 Z10 F5000                                ; raise nozzle after wipe
M109 R160          ; wait for extruder to reach probe temp
G1 X-10 Y293 F4000                          ; move above first probe point
M204 S100                                   ; set probing acceleration
G29                                         ; start auto-leveling sequence
M420 S1                                     ; enable leveling matrix
M204 S500                                   ; restore standard acceleration
G1 X0 Y0 Z15 F5000                          ; move up off last probe point
G4 S1                                       ; pause
M400                                        ; wait for moves to finish
M117 Heating...                             ; progress indicator message on LCD
M109 R205  ; wait for extruder to reach printing temp
M190 R60    ; wait for bed to reach printing temp
G1 Z2 E0 F75                                ; prime tiny bit of filament into the nozzle
M117 TAZ 6 Printing...                      ; progress indicator message on LCD
;Start G-Code End

G92 E0
G92 E0
G1 F600 E-1.75
;LAYER_COUNT:99
;LAYER:0
M107
G0 F2625 X68.694 Y69.897 Z0.425
;TYPE:SKIRT
G1 F600 E0
G1 F900 X69.222 Y69.384 E0.02452
G1 X69.641 Y69.033 E0.04273
G1 X70.107 Y68.746 E0.06096
G1 X70.61 Y68.53 E0.07919
G1 X71.139 Y68.389 E0.09743
G1 X71.68 Y68.327 E0.11557
G1 X72.351 Y68.314 E0.13793
G1 X202.698 Y68.314 E4.47983
G1 X203.4 Y68.324 E4.50322
G1 X203.946 Y68.372 E4.52147
G1 X204.478 Y68.499 E4.53969
G1 X204.987 Y68.701 E4.55793
G1 X205.46 Y68.976 E4.57616
G1 X205.901 Y69.328 E4.59496
G1 X206.348 Y69.757 E4.61559
G1 X215.417 Y78.827 E5.04284
G1 X215.931 Y79.356 E5.06741
G1 X216.282 Y79.775 E5.08562
G1 X216.569 Y80.241 E5.10385
G1 X216.785 Y80.744 E5.12208
G1 X216.926 Y81.273 E5.14032
G1 X216.988 Y81.822 E5.15872
G1 X217.001 Y82.425 E5.17881
G1 X217.001 Y212.831 E9.52268
G1 X216.991 Y213.533 E9.54607
G1 X216.943 Y214.079 E9.56433
G1 X216.816 Y214.611 E9.58255
G1 X216.614 Y215.12 E9.60079
G1 X216.339 Y215.593 E9.61901
G1 X215.987 Y216.034 E9.63781
G1 X215.544 Y216.495 E9.6591
G1 X206.503 Y225.537 E10.08503
G1 X205.961 Y226.064 E10.11021
G1 X205.542 Y226.416 E10.12844
G1 X205.076 Y226.703 E10.14667
G1 X204.573 Y226.919 E10.16491
G1 X204.044 Y227.06 E10.18314
G1 X203.502 Y227.122 E10.20131
G1 X202.831 Y227.135 E10.22367
G1 X72.484 Y227.135 E14.56558
G1 X71.783 Y227.125 E14.58893
G1 X71.237 Y227.077 E14.60719
G1 X70.705 Y226.95 E14.62541
G1 X70.196 Y226.748 E14.64365
G1 X69.723 Y226.473 E14.66187
G1 X69.293 Y226.131 E14.68017
G1 X68.812 Y225.67 E14.70237
G1 X59.765 Y216.622 E15.12858
G1 X59.251 Y216.093 E15.15314
G1 X58.9 Y215.674 E15.17135
G1 X58.613 Y215.208 E15.18958
G1 X58.397 Y214.705 E15.20782
G1 X58.256 Y214.176 E15.22605
G1 X58.194 Y213.627 E15.24446
G1 X58.181 Y213.024 E15.26455
G1 X58.181 Y82.618 E19.60842
G1 X58.191 Y81.916 E19.6318
G1 X58.239 Y81.37 E19.65006
G1 X58.366 Y80.838 E19.66828
G1 X58.568 Y80.329 E19.68652
G1 X58.843 Y79.856 E19.70475
G1 X59.195 Y79.415 E19.72354
G1 X59.638 Y78.954 E19.74484
G1 X68.694 Y69.897 E20.17147
G0 F2625 X69.042 Y70.256
G1 F900 X69.57 Y69.743 E20.196
G1 X69.962 Y69.418 E20.21296
G1 X70.401 Y69.158 E20.22995
G1 X70.874 Y68.969 E20.24692
G1 X71.371 Y68.857 E20.26389
G1 X71.948 Y68.818 E20.28315
G1 X72.356 Y68.814 E20.29675
G1 X202.691 Y68.814 E24.63825
G1 X203.393 Y68.824 E24.66164
G1 X203.901 Y68.871 E24.67863
G1 X204.394 Y68.997 E24.69558
G1 X204.862 Y69.199 E24.71256
G1 X205.293 Y69.471 E24.72954
G1 X205.69 Y69.814 E24.74701
G1 X206.026 Y70.142 E24.76266
G1 X215.058 Y79.175 E25.18816
G1 X215.572 Y79.704 E25.21273
G1 X215.897 Y80.096 E25.22969
G1 X216.157 Y80.534 E25.24666
G1 X216.346 Y81.008 E25.26365
G1 X216.458 Y81.505 E25.28062
G1 X216.496 Y82.021 E25.29786
G1 X216.501 Y82.43 E25.31148
G1 X216.501 Y212.824 E29.65496
G1 X216.491 Y213.526 E29.67834
G1 X216.444 Y214.034 E29.69534
G1 X216.318 Y214.527 E29.71229
G1 X216.116 Y214.995 E29.72926
G1 X215.844 Y215.426 E29.74624
G1 X215.501 Y215.823 E29.76372
G1 X215.16 Y216.172 E29.77997
G1 X206.155 Y225.178 E30.2042
G1 X205.613 Y225.705 E30.22938
G1 X205.221 Y226.031 E30.24637
G1 X204.783 Y226.291 E30.26333
G1 X204.309 Y226.479 E30.28032
G1 X203.812 Y226.592 E30.2973
G1 X203.234 Y226.631 E30.31659
G1 X202.826 Y226.635 E30.33019
G1 X72.491 Y226.635 E34.67169
G1 X71.79 Y226.625 E34.69504
G1 X71.282 Y226.577 E34.71204
G1 X70.789 Y226.452 E34.72898
G1 X70.321 Y226.25 E34.74596
G1 X69.89 Y225.978 E34.76294
G1 X69.49 Y225.633 E34.78053
G1 X69.139 Y225.29 E34.79688
G1 X60.124 Y216.274 E35.22158
G1 X59.61 Y215.745 E35.24615
G1 X59.285 Y215.353 E35.26311
G1 X59.025 Y214.915 E35.28008
G1 X58.836 Y214.441 E35.29708
G1 X58.724 Y213.944 E35.31405
G1 X58.686 Y213.428 E35.33128
G1 X58.681 Y213.019 E35.34491
G1 X58.681 Y82.625 E39.68838
G1 X58.691 Y81.923 E39.71177
G1 X58.738 Y81.415 E39.72876
G1 X58.864 Y80.922 E39.74571
G1 X59.066 Y80.454 E39.76269
G1 X59.338 Y80.023 E39.77967
G1 X59.681 Y79.626 E39.79714
G1 X60.022 Y79.277 E39.8134
G1 X69.042 Y70.256 E40.23833
G1 F600 E38.48833
;MESH:top_plate.3mf
G0 F2625 X88.839 Y79.35
G0 X88.394 Y80.711
;TYPE:WALL-INNER
G1 F600 E40.23833
G1 F900 X89.042 Y80.814 E40.26019
G1 X116.157 Y80.813 E41.1634
G1 X116.791 Y80.71 E41.1848
G1 X117.419 Y80.389 E41.20829
G1 X117.918 Y79.891 E41.23177
G1 X118.237 Y79.262 E41.25527
G1 X118.348 Y78.564 E41.27881
G1 X118.239 Y77.867 E41.30231
G1 X117.916 Y77.237 E41.32589
G1 X117.418 Y76.738 E41.34937
G1 X116.79 Y76.419 E41.37284
G1 X116.141 Y76.314 E41.39474
G1 X89.024 Y76.315 E42.29801
G1 X88.393 Y76.418 E42.31931
G1 X87.764 Y76.74 E42.34285
G1 X87.266 Y77.237 E42.36628
G1 X86.945 Y77.867 E42.38984
G1 X86.834 Y78.564 E42.41335
G1 X86.946 Y79.263 E42.43693
G1 X87.267 Y79.892 E42.46045
G1 X87.765 Y80.39 E42.48391
G1 X88.394 Y80.711 E42.50743
G1 F600 E40.75743
G0 F2625 X88.839 Y79.35
G0 X123.836 Y79.349
G0 X123.395 Y80.711
G1 F600 E42.50743
G1 F900 X124.042 Y80.814 E42.52926
G1 X151.157 Y80.813 E43.43247
G1 X151.791 Y80.71 E43.45386
G1 X152.419 Y80.389 E43.47736
G1 X152.918 Y79.891 E43.50084
G1 X153.237 Y79.262 E43.52433
G1 X153.348 Y78.564 E43.54788
G1 X153.239 Y77.867 E43.57137
G1 X152.916 Y77.237 E43.59496
G1 X152.418 Y76.738 E43.61844
G1 X151.79 Y76.419 E43.6419
G1 X151.141 Y76.314 E43.6638
G1 X124.024 Y76.315 E44.56708
G1 X123.394 Y76.418 E44.58834
G1 X122.764 Y76.739 E44.6119
G1 X122.265 Y77.239 E44.63543
G1 X121.945 Y77.867 E44.65891
G1 X121.834 Y78.564 E44.68242
G1 X121.946 Y79.263 E44.706
G1 X122.265 Y79.89 E44.72943
G1 X122.764 Y80.39 E44.75296
G1 X123.395 Y80.711 E44.77654
G1 F600 E43.02654
G0 F2625 X123.836 Y79.349
G0 X158.837 Y79.349
G0 X158.395 Y80.71
G1 F600 E44.77654
G1 F900 X159.041 Y80.814 E44.79834
G1 X186.157 Y80.813 E45.70158
G1 X186.791 Y80.71 E45.72298
G1 X187.419 Y80.389 E45.74647
G1 X187.918 Y79.891 E45.76995
G1 X188.237 Y79.262 E45.79345
G1 X188.348 Y78.564 E45.81699
G1 X188.239 Y77.868 E45.84046
G1 X187.916 Y77.235 E45.86413
G1 X187.417 Y76.738 E45.88759
G1 X186.79 Y76.419 E45.91102
G1 X186.141 Y76.314 E45.93292
G1 X159.024 Y76.315 E46.8362
G1 X158.393 Y76.419 E46.8575
G1 X157.764 Y76.738 E46.88099
G1 X157.266 Y77.238 E46.9045
G1 X156.944 Y77.867 E46.92804
G1 X156.834 Y78.564 E46.95154
G1 X156.943 Y79.263 E46.97511
G1 X157.266 Y79.891 E46.99863
G1 X157.764 Y80.391 E47.02214
G1 X158.395 Y80.71 E47.04569
G1 F600 E45.29569
G0 F2625 X158.837 Y79.349
G0 X206.499 Y127.01
G0 X206.055 Y128.372
G1 F600 E47.04569
G1 F900 X206.751 Y128.481 E47.06916
G1 X207.45 Y128.37 E47.09273
G1 X208.079 Y128.049 E47.11626
G1 X208.578 Y127.551 E47.13974
G1 X208.897 Y126.923 E47.1632
G1 X209.001 Y126.274 E47.1851
G1 X209 Y99.159 E48.08831
G1 X208.897 Y98.525 E48.1097
G1 X208.576 Y97.897 E48.1332
G1 X208.078 Y97.398 E48.15668
G1 X207.449 Y97.079 E48.18017
G1 X206.751 Y96.968 E48.20371
G1 X206.054 Y97.077 E48.22721
G1 X205.424 Y97.4 E48.2508
G1 X204.925 Y97.898 E48.27428
G1 X204.606 Y98.526 E48.29774
G1 X204.501 Y99.175 E48.31964
G1 X204.502 Y126.291 E49.22289
G1 X204.606 Y126.924 E49.24425
G1 X204.927 Y127.552 E49.26775
G1 X205.425 Y128.05 E49.29121
G1 X206.055 Y128.372 E49.31478
G1 F600 E47.56478
G0 F2625 X206.499 Y127.01
G0 X206.499 Y162.01
G0 X206.055 Y163.372
G1 F600 E49.31478
G1 F900 X206.751 Y163.481 E49.33824
G1 X207.45 Y163.37 E49.36182
G1 X208.079 Y163.049 E49.38534
G1 X208.578 Y162.551 E49.40882
G1 X208.897 Y161.923 E49.43229
G1 X209.001 Y161.274 E49.45418
G1 X209 Y134.158 E50.35742
G1 X208.898 Y133.527 E50.37872
G1 X208.576 Y132.897 E50.40228
G1 X208.078 Y132.398 E50.42577
G1 X207.45 Y132.079 E50.44923
G1 X206.751 Y131.967 E50.47281
G1 X206.054 Y132.078 E50.49632
G1 X205.424 Y132.4 E50.51989
G1 X204.926 Y132.898 E50.54335
G1 X204.605 Y133.527 E50.56687
G1 X204.501 Y134.174 E50.5887
G1 X204.502 Y161.291 E51.49198
G1 X204.606 Y161.924 E51.51335
G1 X204.927 Y162.552 E51.53684
G1 X205.425 Y163.05 E51.5603
G1 X206.055 Y163.372 E51.58387
G1 F600 E49.83387
G0 F2625 X206.499 Y162.01
G0 X206.499 Y197.01
G0 X206.055 Y198.372
G1 F600 E51.58387
G1 F900 X206.751 Y198.481 E51.60733
G1 X207.45 Y198.37 E51.63091
G1 X208.079 Y198.049 E51.65443
G1 X208.578 Y197.551 E51.67791
G1 X208.897 Y196.923 E51.70138
G1 X209.001 Y196.274 E51.72327
G1 X209 Y169.158 E52.62652
G1 X208.898 Y168.527 E52.64781
G1 X208.576 Y167.897 E52.67138
G1 X208.078 Y167.398 E52.69486
G1 X207.45 Y167.079 E52.71832
G1 X206.751 Y166.967 E52.7419
G1 X206.054 Y167.078 E52.76541
G1 X205.424 Y167.4 E52.78898
G1 X204.926 Y167.898 E52.81244
G1 X204.605 Y168.527 E52.83596
G1 X204.501 Y169.174 E52.85779
G1 X204.502 Y196.291 E53.76107
G1 X204.606 Y196.924 E53.78244
G1 X204.927 Y197.552 E53.80593
G1 X205.425 Y198.05 E53.82939
G1 X206.055 Y198.372 E53.85296
G1 F600 E52.10296
G0 F2625 X206.499 Y197.01
G0 X204.042 Y223.635
G0 X203.04 Y222.635
G1 F600 E53.85296
G1 F900 X72.142 Y222.635 E58.21322
G1 X62.681 Y213.173 E58.65893
G1 X62.681 Y82.276 E63.01916
G1 X72.142 Y72.814 E63.46487
G1 X203.04 Y72.814 E67.82513
G1 X212.501 Y82.276 E68.27084
G1 X212.501 Y213.173 E72.63106
G1 X203.04 Y222.635 E73.07678
G1 F600 E71.32678
G0 F2625 X203.04 Y224.05
G0 X158.837 Y217.669
G0 X158.394 Y219.03
G1 F600 E73.07678
G1 F900 X159.041 Y219.135 E73.09861
G1 X186.158 Y219.134 E74.00189
G1 X186.791 Y219.03 E74.02326
G1 X187.419 Y218.709 E74.04675
G1 X187.917 Y218.211 E74.07021
G1 X188.239 Y217.581 E74.09378
G1 X188.348 Y216.885 E74.11724
G1 X188.237 Y216.186 E74.14082
G1 X187.916 Y215.557 E74.16434
G1 X187.418 Y215.058 E74.18783
G1 X186.79 Y214.739 E74.21129
G1 X186.141 Y214.635 E74.23318
G1 X159.024 Y214.636 E75.13646
G1 X158.394 Y214.739 E75.15772
G1 X157.764 Y215.058 E75.18125
G1 X157.266 Y215.558 E75.20475
G1 X156.943 Y216.186 E75.22828
G1 X156.834 Y216.885 E75.25184
G1 X156.944 Y217.582 E75.27535
G1 X157.266 Y218.211 E75.29888
G1 X157.764 Y218.711 E75.32239
G1 X158.394 Y219.03 E75.34591
G1 F600 E73.59591
G0 F2625 X158.837 Y217.669
G0 X123.836 Y217.67
G0 X123.394 Y219.031
G1 F600 E75.34591
G1 F900 X124.041 Y219.135 E75.36774
G1 X151.158 Y219.134 E76.27102
G1 X151.791 Y219.03 E76.29239
G1 X152.419 Y218.709 E76.31588
G1 X152.917 Y218.211 E76.33934
G1 X153.239 Y217.581 E76.36291
G1 X153.348 Y216.885 E76.38638
G1 X153.237 Y216.186 E76.40995
G1 X152.916 Y215.557 E76.43347
G1 X152.418 Y215.058 E76.45696
G1 X151.79 Y214.739 E76.48042
G1 X151.141 Y214.635 E76.50231
G1 X124.025 Y214.636 E77.40556
G1 X123.394 Y214.738 E77.42685
G1 X122.764 Y215.059 E77.4504
G1 X122.265 Y215.559 E77.47393
G1 X121.946 Y216.186 E77.49737
G1 X121.834 Y216.885 E77.52095
G1 X121.945 Y217.582 E77.54446
G1 X122.265 Y218.21 E77.56793
G1 X122.764 Y218.71 E77.59147
G1 X123.394 Y219.031 E77.61502
G1 F600 E75.86502
G0 F2625 X123.836 Y217.67
G0 X88.839 Y217.67
G0 X88.394 Y219.031
G1 F600 E77.61502
G1 F900 X89.041 Y219.135 E77.63685
G1 X116.158 Y219.134 E78.54012
G1 X116.791 Y219.03 E78.56149
G1 X117.419 Y218.709 E78.58498
G1 X117.917 Y218.211 E78.60844
G1 X118.239 Y217.581 E78.63201
G1 X118.348 Y216.885 E78.65548
G1 X118.237 Y216.186 E78.67905
G1 X117.916 Y215.557 E78.70258
G1 X117.418 Y215.058 E78.72606
G1 X116.79 Y214.739 E78.74952
G1 X116.141 Y214.635 E78.77142
G1 X89.025 Y214.636 E79.67466
G1 X88.394 Y214.738 E79.69595
G1 X87.764 Y215.06 E79.71952
G1 X87.265 Y215.558 E79.743
G1 X86.946 Y216.186 E79.76647
G1 X86.834 Y216.885 E79.79005
G1 X86.945 Y217.582 E79.81356
G1 X87.267 Y218.212 E79.83713
G1 X87.765 Y218.71 E79.86059
G1 X88.394 Y219.031 E79.88411
G1 F600 E78.13411
G0 F2625 X88.839 Y217.67
G0 X68.175 Y197.009
G0 X67.733 Y198.37
G1 F600 E79.88411
G1 F900 X68.431 Y198.481 E79.90765
G1 X69.127 Y198.37 E79.93113
G1 X69.758 Y198.051 E79.95468
G1 X70.257 Y197.55 E79.97823
G1 X70.576 Y196.923 E80.00167
G1 X70.681 Y196.274 E80.02357
G1 X70.68 Y169.157 E80.92684
G1 X70.577 Y168.526 E80.94814
G1 X70.257 Y167.899 E80.97159
G1 X69.758 Y167.398 E80.99514
G1 X69.128 Y167.079 E81.01867
G1 X68.431 Y166.967 E81.04218
G1 X67.732 Y167.079 E81.06576
G1 X67.103 Y167.4 E81.08929
G1 X66.605 Y167.898 E81.11275
G1 X66.284 Y168.527 E81.13627
G1 X66.181 Y169.175 E81.15812
G1 X66.182 Y196.29 E82.06133
G1 X66.285 Y196.924 E82.08273
G1 X66.606 Y197.552 E82.10622
G1 X67.104 Y198.051 E82.12971
G1 X67.733 Y198.37 E82.1532
G1 F600 E80.4032
G0 F2625 X68.175 Y197.009
G0 X68.175 Y162.009
G0 X67.733 Y163.37
G1 F600 E82.1532
G1 F900 X68.431 Y163.481 E82.17674
G1 X69.127 Y163.37 E82.20022
G1 X69.758 Y163.051 E82.22377
G1 X70.257 Y162.55 E82.24733
G1 X70.576 Y161.923 E82.27076
G1 X70.681 Y161.274 E82.29266
G1 X70.68 Y134.157 E83.19594
G1 X70.577 Y133.526 E83.21723
G1 X70.257 Y132.899 E83.24068
G1 X69.758 Y132.398 E83.26424
G1 X69.128 Y132.079 E83.28776
G1 X68.431 Y131.967 E83.31127
G1 X67.732 Y132.079 E83.33485
G1 X67.103 Y132.4 E83.35838
G1 X66.605 Y132.898 E83.38184
G1 X66.284 Y133.527 E83.40536
G1 X66.181 Y134.175 E83.42722
G1 X66.182 Y161.29 E84.33043
G1 X66.285 Y161.924 E84.35182
G1 X66.606 Y162.552 E84.37531
G1 X67.104 Y163.051 E84.3988
G1 X67.733 Y163.37 E84.42229
G1 F600 E82.67229
